X:2050
T: The Legacy Jig
M: 6/8
L: 1/8
R: jig
K: Gmaj
|~G3 B2d|~g3 gab|~G3 ~B3|dBA AFD|
|~G3 B2d|~g3 gab|age ege|1dBA ABA:|2dBA ABd|
|~e3 edB|~d3 dBd|~e3 edB|dBA ABd|
|~e3 edB|~d3 def|~g3 ~e3|dBA ABd|
|~e3 edB|~d3 dBd|~e3 edB|gdB ABd|
|~e3 edB|~d3 def|~g3 ~e3|dBA ABA||
